X:11019
T:King of the Cannibal Islands
T:Vulcan's Cave
R:Jig
C:Trad.
O:England
Z:Paul Hardy's Session Tunebook 2015 (see www.paulhardy.net). Creative Commons cc by-nc-sa licenced.
M:6/8
L:1/8
Q:3/8=120
K:D
A|"D"f2e d2c|d2B A2F|"G"GFG EFG|"D"F2G A2A|"G"B2G d2B|"D"A2F d2d|"A"cde ABc|"D"d3 d2:|
|:e|"D"f2f f2e|f2f f2e|f2f "G"g2f|"A"e2e e2c|"D"d2d d2c|"G"d2d d2c|"D"d2B "A"e2d|c2B ABc|
"D"d2d "A"cBA|"G"B2c "D"d2A|ded "A"cBA|"G"B2c "D"d2f|"A"e2e e2e|"Em"e2e efg|"A7"a2a ABc|"D"d3 d2:|

